svgs/prayer_times.svg

<svg xmlns="http://www.w3.org/2000/svg" width="192" height="192" fill="none" viewBox="0 0 192 192"><path stroke="#000" stroke-linecap="round" stroke-linejoin="round" stroke-width="12" d="M59 167c0-27-8-27-8-38m82 38c0-27 8-27 8-38"/><path stroke="#000" stroke-linejoin="round" stroke-width="12" d="M25 53c0-15.464 12.536-28 28-28h86c15.464 0 28 12.536 28 28v86c0 15.464-12.536 28-28 28H53c-15.464 0-28-12.536-28-28z"/><path stroke="#000" stroke-linecap="round" stroke-linejoin="round" stroke-width="8" d="M96 74V46"/><path stroke="#000" stroke-linecap="round" stroke-linejoin="round" stroke-width="10" d="M59 145h74"/><path stroke="#000" stroke-linecap="round" stroke-linejoin="round" stroke-width="12" d="M51 129c0-22 45-42 45-52m45 52c0-22-45-42-45-52"/><circle cx="96" cy="76" r="4" stroke="#000" stroke-linecap="round" stroke-linejoin="round" stroke-width="8"/></svg>

<svg width="192" height="192" viewBox="0 0 192 192" fill="none" xmlns="http://www.w3.org/2000/svg">
<path d="M59 167C59 140 51 140 51 129" stroke="black" stroke-width="12" stroke-linecap="round" stroke-linejoin="round"/>
<path d="M133 167C133 140 141 140 141 129" stroke="black" stroke-width="12" stroke-linecap="round" stroke-linejoin="round"/>
<path d="M25 53C25 37.536 37.536 25 53 25H139C154.464 25 167 37.536 167 53V139C167 154.464 154.464 167 139 167H53C37.536 167 25 154.464 25 139V53Z" stroke="black" stroke-width="12" stroke-linejoin="round"/>
<path d="M96 74L96 46" stroke="black" stroke-width="8" stroke-linecap="round" stroke-linejoin="round"/>
<path d="M59 145H133" stroke="black" stroke-width="10" stroke-linecap="round" stroke-linejoin="round"/>
<path d="M51 129C51 107 96 87 96 77" stroke="black" stroke-width="12" stroke-linecap="round" stroke-linejoin="round"/>
<path d="M141 129C141 107 96 87 96 77" stroke="black" stroke-width="12" stroke-linecap="round" stroke-linejoin="round"/>
<circle cx="96" cy="76" r="4" stroke="black" stroke-width="8" stroke-linecap="round" stroke-linejoin="round"/>
</svg>
